X:1
T:Title
%%score { 1 | 2 }
L:1/8
M:6/8
K:Ab
V:1 treble nm="Grand Piano"
V:2 bass 
V:1
 z3 z2[Q:1/4=90] [CE] | [CE][CE][CE] [CE][CA][Ec] | [FB]3 [DF]2 [FA] | GFE Bcd | %4
 [Ec]3- [Ec]2 [CE] | [CE][CE][CE] [CE][CA][Ec] | [FB]3 [DF]2 [FA] | GFE GAB | %8
[M:5/8] [CEA]-[CEA]- [CEA]3 |[M:1/8] [A,CA] |[M:3/4] BB BB cd | [Ec]3 [CA]2 [EG] | %12
 FF F[=DF] [DG][DA] | c3 B2 E | [CE][Ec] [Ec] [Ec]2 [EA] |[M:7/8] [EG][EG][DF] [Fd]3 F | %16
[M:3/4] Ec cc BA |[M:5/8] B3 [CEA]2 |] %18
V:2
 z3 z2 [A,,A,] | [A,,A,][A,,A,][A,,A,] [A,,A,][A,,A,][A,,A,] | [D,A,]3 [D,A,]2 [D,D] | %3
 [E,B,E][E,A,E][E,G,] [E,G,E][E,A,E][E,B,E] | [A,,A,]3- [A,,A,]2 [A,,A,] | %5
 [A,,A,][A,,A,][A,,A,] [A,,A,][A,,A,][A,,A,] | [D,A,]3 [D,A,]2 [D,D] | %7
 [E,B,E][E,A,E][E,G,] [E,B,E][E,CE][E,DE] |[M:5/8] A,,-A,,- A,,3 |[M:1/8] A,, | %10
[M:3/4] [E,G,E][E,G,E] [E,G,E][E,G,E] [E,A,E][E,B,E] | [A,,A,]3 [A,,E,]2 [C,A,] | %12
 [D,A,D][D,A,D] [D,A,D][B,,B,] [B,,B,][B,,B,] | [E,A,E]3 [E,G,E]2 [E,G,D] | %14
 [A,,A,][A,,A,] [A,,A,] [A,,A,]2 [C,A,] |[M:7/8] [D,A,][D,A,][D,A,] [D,A,]3 [D,A,D] | %16
[M:3/4] [E,A,C][E,A,E] [E,A,E][E,A,E] [E,DE][E,CE] |[M:5/8] [E,DE]3 A,,2 |] %18

